icons/modern/white-cane.svg

<svg width="32" height="32" viewBox="0 0 32 32" fill="none" xmlns="http://www.w3.org/2000/svg">
<path d="M27.5444 5.94005C27.5126 6.63294 27.6399 8.29887 28.1184 8.9347C28.7164 9.72949 29.6245 8.26227 29.2479 4.29929" stroke="#352E3C" stroke-width="1.25" stroke-linecap="round"/>
<path d="M27.5444 5.94005C27.5126 6.63294 27.6399 8.29887 28.1184 8.9347C28.7164 9.72949 29.6245 8.26227 29.2479 4.29929" stroke="url(#paint0_radial_18_24597)" stroke-width="1.25" stroke-linecap="round"/>
<path d="M27.5444 5.94005C27.5126 6.63294 27.6399 8.29887 28.1184 8.9347C28.7164 9.72949 29.6245 8.26227 29.2479 4.29929" stroke="url(#paint1_radial_18_24597)" stroke-width="1.25" stroke-linecap="round"/>
<path d="M27.5444 5.94005C27.5126 6.63294 27.6399 8.29887 28.1184 8.9347C28.7164 9.72949 29.6245 8.26227 29.2479 4.29929" stroke="url(#paint2_radial_18_24597)" stroke-width="1.25" stroke-linecap="round"/>
<path d="M27.5444 5.94005C27.5126 6.63294 27.6399 8.29887 28.1184 8.9347C28.7164 9.72949 29.6245 8.26227 29.2479 4.29929" stroke="url(#paint3_radial_18_24597)" stroke-width="1.25" stroke-linecap="round"/>
<path d="M29.5101 2.51728C28.9048 1.91192 27.9233 1.91193 27.318 2.51728L4.0534 25.7818C3.9687 25.8665 3.85594 25.9156 3.7378 25.9353C2.77207 26.0963 2.03601 26.9358 2.03601 27.9472C2.03601 29.0737 2.94922 29.9869 4.07581 29.9869C5.08419 29.9869 5.92173 29.2551 6.08618 28.2935C6.10624 28.1763 6.15521 28.0645 6.23933 27.9803L29.5101 4.70947C30.1155 4.10412 30.1155 3.12264 29.5101 2.51728Z" fill="url(#paint4_linear_18_24597)"/>
<path d="M29.5101 2.51728C28.9048 1.91192 27.9233 1.91193 27.318 2.51728L4.0534 25.7818C3.9687 25.8665 3.85594 25.9156 3.7378 25.9353C2.77207 26.0963 2.03601 26.9358 2.03601 27.9472C2.03601 29.0737 2.94922 29.9869 4.07581 29.9869C5.08419 29.9869 5.92173 29.2551 6.08618 28.2935C6.10624 28.1763 6.15521 28.0645 6.23933 27.9803L29.5101 4.70947C30.1155 4.10412 30.1155 3.12264 29.5101 2.51728Z" fill="url(#paint5_radial_18_24597)"/>
<path d="M24.1328 10.0869L21.9406 7.89468L27.318 2.51728C27.9233 1.91193 28.9048 1.91192 29.5101 2.51728C30.1155 3.12264 30.1155 4.10412 29.5101 4.70947L24.1328 10.0869Z" fill="url(#paint6_linear_18_24597)"/>
<path d="M24.1328 10.0869L21.9406 7.89468L27.318 2.51728C27.9233 1.91193 28.9048 1.91192 29.5101 2.51728C30.1155 3.12264 30.1155 4.10412 29.5101 4.70947L24.1328 10.0869Z" fill="url(#paint7_radial_18_24597)"/>
<circle cx="4.07233" cy="27.9622" r="2.03632" fill="url(#paint8_radial_18_24597)"/>
<g filter="url(#filter0_f_18_24597)">
<path d="M22.7805 9.15625L10.6243 21.3125" stroke="url(#paint9_linear_18_24597)" stroke-width="0.65"/>
</g>
<g filter="url(#filter1_f_18_24597)">
<path d="M28.9211 3.01562L23.2493 8.6875" stroke="url(#paint10_linear_18_24597)" stroke-width="0.65"/>
</g>
<path d="M4.04443 25.7908L9.45093 20.3843L11.6431 22.5766L6.23657 27.9831L4.04443 25.7908Z" fill="url(#paint11_linear_18_24597)"/>
<g filter="url(#filter2_f_18_24597)">
<path d="M5.28052 26.6875L10.3586 21.6094" stroke="url(#paint12_linear_18_24597)" stroke-width="0.65"/>
</g>
<defs>
<filter id="filter0_f_18_24597" x="9.74447" y="8.27645" width="13.9158" height="13.9158" filterUnits="userSpaceOnUse" color-interpolation-filters="sRGB">
<feFlood flood-opacity="0" result="BackgroundImageFix"/>
<feBlend mode="normal" in="SourceGraphic" in2="BackgroundImageFix" result="shape"/>
<feGaussianBlur stdDeviation="0.325" result="effect1_foregroundBlur_18_24597"/>
</filter>
<filter id="filter1_f_18_24597" x="22.3695" y="2.13583" width="7.43147" height="7.43147" filterUnits="userSpaceOnUse" color-interpolation-filters="sRGB">
<feFlood flood-opacity="0" result="BackgroundImageFix"/>
<feBlend mode="normal" in="SourceGraphic" in2="BackgroundImageFix" result="shape"/>
<feGaussianBlur stdDeviation="0.325" result="effect1_foregroundBlur_18_24597"/>
</filter>
<filter id="filter2_f_18_24597" x="4.55072" y="20.8796" width="6.53772" height="6.53772" filterUnits="userSpaceOnUse" color-interpolation-filters="sRGB">
<feFlood flood-opacity="0" result="BackgroundImageFix"/>
<feBlend mode="normal" in="SourceGraphic" in2="BackgroundImageFix" result="shape"/>
<feGaussianBlur stdDeviation="0.25" result="effect1_foregroundBlur_18_24597"/>
</filter>
<radialGradient id="paint0_radial_18_24597" cx="0" cy="0" r="1" gradientUnits="userSpaceOnUse" gradientTransform="translate(28.0461 6.15625) rotate(89.1319) scale(2.06274 0.703281)">
<stop offset="0.168465" stop-color="#6A656F"/>
<stop offset="1" stop-color="#6A656F" stop-opacity="0"/>
</radialGradient>
<radialGradient id="paint1_radial_18_24597" cx="0" cy="0" r="1" gradientUnits="userSpaceOnUse" gradientTransform="translate(29.6868 4.29929) rotate(90) scale(3.45071 0.709315)">
<stop stop-color="#6B6473"/>
<stop offset="1" stop-color="#6B6473" stop-opacity="0"/>
</radialGradient>
<radialGradient id="paint2_radial_18_24597" cx="0" cy="0" r="1" gradientUnits="userSpaceOnUse" gradientTransform="translate(28.7649 4.96875) rotate(97.125) scale(4.91294 1.84679)">
<stop offset="0.797633" stop-color="#5F5867" stop-opacity="0"/>
<stop offset="1" stop-color="#5F5867"/>
</radialGradient>
<radialGradient id="paint3_radial_18_24597" cx="0" cy="0" r="1" gradientUnits="userSpaceOnUse" gradientTransform="translate(28.7961 10.1094) rotate(-66.5643) scale(3.69293 1.10065)">
<stop stop-color="#53346C"/>
<stop offset="1" stop-color="#53346C" stop-opacity="0"/>
</radialGradient>
<linearGradient id="paint4_linear_18_24597" x1="16.0001" y1="13.375" x2="18.718" y2="16.0251" gradientUnits="userSpaceOnUse">
<stop stop-color="#A8A3AE"/>
<stop offset="1" stop-color="#B5A2C8"/>
</linearGradient>
<radialGradient id="paint5_radial_18_24597" cx="0" cy="0" r="1" gradientUnits="userSpaceOnUse" gradientTransform="translate(4.96802 27.0469) rotate(133.727) scale(1.49192 1.57047)">
<stop stop-color="#D6D0DD"/>
<stop offset="1" stop-color="#B1A9BA" stop-opacity="0"/>
</radialGradient>
<linearGradient id="paint6_linear_18_24597" x1="24.093" y1="9.43749" x2="29.9641" y2="3.06249" gradientUnits="userSpaceOnUse">
<stop offset="0.103578" stop-color="#3F354A"/>
<stop offset="1" stop-color="#4E3964"/>
</linearGradient>
<radialGradient id="paint7_radial_18_24597" cx="0" cy="0" r="1" gradientUnits="userSpaceOnUse" gradientTransform="translate(29.9641 2.43749) rotate(132.726) scale(2.29714 2.77726)">
<stop offset="0.171789" stop-color="#6B597C"/>
<stop offset="1" stop-color="#6B597C" stop-opacity="0"/>
</radialGradient>
<radialGradient id="paint8_radial_18_24597" cx="0" cy="0" r="1" gradientUnits="userSpaceOnUse" gradientTransform="translate(4.43677 27.0625) rotate(97.0758) scale(2.95856 3.52406)">
<stop offset="0.495482" stop-color="#ADA4B6" stop-opacity="0"/>
<stop offset="1" stop-color="#A279C6"/>
</radialGradient>
<linearGradient id="paint9_linear_18_24597" x1="22.7805" y1="9.65623" x2="10.593" y2="21.8437" gradientUnits="userSpaceOnUse">
<stop stop-color="#B6AFBD"/>
<stop offset="1" stop-color="#BAB0C5"/>
</linearGradient>
<linearGradient id="paint10_linear_18_24597" x1="30.2493" y1="1.6875" x2="24.093" y2="7.90625" gradientUnits="userSpaceOnUse">
<stop stop-color="#7C6E8B"/>
<stop offset="1" stop-color="#4C4256"/>
</linearGradient>
<linearGradient id="paint11_linear_18_24597" x1="5.15552" y1="27.625" x2="10.9055" y2="21.625" gradientUnits="userSpaceOnUse">
<stop stop-color="#F52B85"/>
<stop offset="1" stop-color="#E23753"/>
</linearGradient>
<linearGradient id="paint12_linear_18_24597" x1="5.65552" y1="26.6875" x2="10.593" y2="21.8438" gradientUnits="userSpaceOnUse">
<stop stop-color="#F83C7F"/>
<stop offset="1" stop-color="#F63D5A"/>
</linearGradient>
</defs>
</svg>

<svg width="32" height="32" fill="none" xmlns="http://www.w3.org/2000/svg"><path d="M27.544 5.94c-.031.693.096 2.359.574 2.995.598.794 1.507-.673 1.13-4.636" stroke="#352E3C" stroke-width="1.25" stroke-linecap="round"/><path d="M27.544 5.94c-.031.693.096 2.359.574 2.995.598.794 1.507-.673 1.13-4.636" stroke="url(#a)" stroke-width="1.25" stroke-linecap="round"/><path d="M27.544 5.94c-.031.693.096 2.359.574 2.995.598.794 1.507-.673 1.13-4.636" stroke="url(#b)" stroke-width="1.25" stroke-linecap="round"/><path d="M27.544 5.94c-.031.693.096 2.359.574 2.995.598.794 1.507-.673 1.13-4.636" stroke="url(#c)" stroke-width="1.25" stroke-linecap="round"/><path d="M27.544 5.94c-.031.693.096 2.359.574 2.995.598.794 1.507-.673 1.13-4.636" stroke="url(#d)" stroke-width="1.25" stroke-linecap="round"/><path d="M29.51 2.517a1.55 1.55 0 0 0-2.192 0L4.053 25.782a.575.575 0 0 1-.315.153 2.04 2.04 0 1 0 2.348 2.359.576.576 0 0 1 .153-.314L29.51 4.71a1.55 1.55 0 0 0 0-2.193Z" fill="url(#e)"/><path d="M29.51 2.517a1.55 1.55 0 0 0-2.192 0L4.053 25.782a.575.575 0 0 1-.315.153 2.04 2.04 0 1 0 2.348 2.359.576.576 0 0 1 .153-.314L29.51 4.71a1.55 1.55 0 0 0 0-2.193Z" fill="url(#f)"/><path d="M24.133 10.087 21.94 7.895l5.377-5.378A1.55 1.55 0 1 1 29.51 4.71l-5.377 5.378Z" fill="url(#g)"/><path d="M24.133 10.087 21.94 7.895l5.377-5.378A1.55 1.55 0 1 1 29.51 4.71l-5.377 5.378Z" fill="url(#h)"/><circle cx="4.072" cy="27.962" r="2.036" fill="url(#i)"/><g filter="url(#j)"><path d="M22.78 9.156 10.624 21.312" stroke="url(#k)" stroke-width=".65"/></g><g filter="url(#l)"><path d="M28.921 3.016 23.25 8.687" stroke="url(#m)" stroke-width=".65"/></g><path d="m4.044 25.79 5.407-5.406 2.192 2.193-5.406 5.406-2.193-2.192Z" fill="url(#n)"/><g filter="url(#o)"><path d="m5.28 26.688 5.079-5.079" stroke="url(#p)" stroke-width=".65"/></g><defs><radialGradient id="a" cx="0" cy="0" r="1" gradientUnits="userSpaceOnUse" gradientTransform="matrix(.03125 2.0625 -.7032 .01066 28.046 6.156)"><stop offset=".168" stop-color="#6A656F"/><stop offset="1" stop-color="#6A656F" stop-opacity="0"/></radialGradient><radialGradient id="b" cx="0" cy="0" r="1" gradientUnits="userSpaceOnUse" gradientTransform="matrix(0 3.45071 -.70932 0 29.687 4.3)"><stop stop-color="#6B6473"/><stop offset="1" stop-color="#6B6473" stop-opacity="0"/></radialGradient><radialGradient id="c" cx="0" cy="0" r="1" gradientUnits="userSpaceOnUse" gradientTransform="matrix(-.60937 4.875 -1.83253 -.22907 28.765 4.969)"><stop offset=".798" stop-color="#5F5867" stop-opacity="0"/><stop offset="1" stop-color="#5F5867"/></radialGradient><radialGradient id="d" cx="0" cy="0" r="1" gradientUnits="userSpaceOnUse" gradientTransform="rotate(-66.564 22.098 -16.88) scale(3.69293 1.10065)"><stop stop-color="#53346C"/><stop offset="1" stop-color="#53346C" stop-opacity="0"/></radialGradient><radialGradient id="f" cx="0" cy="0" r="1" gradientUnits="userSpaceOnUse" gradientTransform="rotate(133.727 -3.294 14.585) scale(1.49192 1.57047)"><stop stop-color="#D6D0DD"/><stop offset="1" stop-color="#B1A9BA" stop-opacity="0"/></radialGradient><radialGradient id="h" cx="0" cy="0" r="1" gradientUnits="userSpaceOnUse" gradientTransform="rotate(132.726 14.449 7.776) scale(2.29714 2.77726)"><stop offset=".172" stop-color="#6B597C"/><stop offset="1" stop-color="#6B597C" stop-opacity="0"/></radialGradient><radialGradient id="i" cx="0" cy="0" r="1" gradientUnits="userSpaceOnUse" gradientTransform="matrix(-.36444 2.93603 -3.49722 -.4341 4.437 27.063)"><stop offset=".495" stop-color="#ADA4B6" stop-opacity="0"/><stop offset="1" stop-color="#A279C6"/></radialGradient><linearGradient id="e" x1="16" y1="13.375" x2="18.718" y2="16.025" gradientUnits="userSpaceOnUse"><stop stop-color="#A8A3AE"/><stop offset="1" stop-color="#B5A2C8"/></linearGradient><linearGradient id="g" x1="24.093" y1="9.437" x2="29.964" y2="3.062" gradientUnits="userSpaceOnUse"><stop offset=".104" stop-color="#3F354A"/><stop offset="1" stop-color="#4E3964"/></linearGradient><linearGradient id="k" x1="22.78" y1="9.656" x2="10.593" y2="21.844" gradientUnits="userSpaceOnUse"><stop stop-color="#B6AFBD"/><stop offset="1" stop-color="#BAB0C5"/></linearGradient><linearGradient id="m" x1="30.249" y1="1.688" x2="24.093" y2="7.906" gradientUnits="userSpaceOnUse"><stop stop-color="#7C6E8B"/><stop offset="1" stop-color="#4C4256"/></linearGradient><linearGradient id="n" x1="5.156" y1="27.625" x2="10.905" y2="21.625" gradientUnits="userSpaceOnUse"><stop stop-color="#F52B85"/><stop offset="1" stop-color="#E23753"/></linearGradient><linearGradient id="p" x1="5.656" y1="26.688" x2="10.593" y2="21.844" gradientUnits="userSpaceOnUse"><stop stop-color="#F83C7F"/><stop offset="1" stop-color="#F63D5A"/></linearGradient><filter id="j" x="9.744" y="8.276" width="13.916" height="13.916" filterUnits="userSpaceOnUse" color-interpolation-filters="sRGB"><feFlood flood-opacity="0" result="BackgroundImageFix"/><feBlend in="SourceGraphic" in2="BackgroundImageFix" result="shape"/><feGaussianBlur stdDeviation=".325" result="effect1_foregroundBlur_18_24597"/></filter><filter id="l" x="22.369" y="2.136" width="7.431" height="7.431" filterUnits="userSpaceOnUse" color-interpolation-filters="sRGB"><feFlood flood-opacity="0" result="BackgroundImageFix"/><feBlend in="SourceGraphic" in2="BackgroundImageFix" result="shape"/><feGaussianBlur stdDeviation=".325" result="effect1_foregroundBlur_18_24597"/></filter><filter id="o" x="4.551" y="20.88" width="6.538" height="6.538" filterUnits="userSpaceOnUse" color-interpolation-filters="sRGB"><feFlood flood-opacity="0" result="BackgroundImageFix"/><feBlend in="SourceGraphic" in2="BackgroundImageFix" result="shape"/><feGaussianBlur stdDeviation=".25" result="effect1_foregroundBlur_18_24597"/></filter></defs></svg>
